X:376
T:Nous tions trois marins
R:Hanter dro
C:trad.
A:Bretagne
O:France
Z:S Piron
M:2/4
L:1/8
Q:1/4=85
K:C
cc/2c/2 BA|G2 cc/2c/2|df ed:|
|de/2f/2 ge/2d/2|c2 AB/2c/2|df ed|
cd/2c/2 AG/2F/2|G2 cc/2c/2|AFG2||
W:
W:Nous tions trois marins qui allaient sur la mer
W:Le vent nous tait bon, la mer tait contraire.
W:
W: refrain
W:Gai, maluron, malura les gars sont pour les filles
W:Gai, maluron, malura les filles sont pour les gars
W:
W:Le vent nous a pouss sur les ctes d'Irlande
W:Prs d'un moulin  vent nous avons mouill l'ancre.
W:
W:Et dedans ce moulin, y'avait une servante,
